!!!!SEGMENT: pl-kk--kk-i-382--018-002_anonim--nro-6-gloria.krn
!!!cenid: 18xx:1486
!!!COM: Anonim
!!!COM-rismid: pe30004985
!!!CDT:
!!!CNT:
!!!OPR: Nro 6
!!!OTL: Gloria
!!!OMV: 003
!!!PDT:
!!!AGN: Sacred
!!!SMS-siglum: PL-Kk
!!!SMS-shelfmark: Kk.I.382
!!!SMS-shelfwork: 006-003 M
!!!SMS-variant:
!!!SMS-altvar:
!!!NIFC-rismid: 1001139134
!!!URL-scan: http://repozytorium.nifc.pl/skany/pl-kk-nut--i-382
!!!ONB-nifc: UWAGA: S (T 1), A (B 1), T 2, B 2; S (T 1): skan 0017-0018; A (B 1): skan 0163; T 2: skan 0089; B 2: skan 0235
!!!AIN: 1 alto 1 bass 2 tenor
!!!key:
**kern	**text	**dynam	**kern	**text	**kern	**text	**kern	**text
*part4	*part4	*part4	*part3	*part3	*part2	*part2	*part1	*part1
*staff4	*staff4	*	*staff3	*staff3	*staff2	*staff2	*staff1	*staff1
*Ibass	*	*	*Itenor	*	*Ialto	*	*Itenor	*
*I"Basso II	*	*	*I"Tenore II	*	*I"Alto vel Basso I	*	*I"Soprano vel Tenore I.	*
*I'B 2	*	*	*I'T 2	*	*I'A (B 1)	*	*I'S (T 1)	*
*clefF4	*	*	*clefC4	*	*clefC3	*	*clefC1	*
*k[b-]	*	*	*k[b-]	*	*k[b-]	*	*k[b-]	*
*F:	*	*	*F:	*	*F:	*	*F:	*
*M4/4	*	*	*M4/4	*	*M4/4	*	*M4/4	*
*met(C.)	*	*	*met(c.)	*	*met(C.)	*	*met(C.)	*
=1	=1	=1	=1	=1	=1	=1	=1	=1
*2\right	*	*	*2\right	*	*2\right	*	*2\right	*
!	!	!	!	!	!	!	!LO:TX:t=P:problem=all\right&colon; global	!
!LO:TX:t=P:problem=all\right&colon; global	!	!	!LO:TX:t=P:problem=all\right&colon; global	!	!LO:TX:t=P:problem=all\right&colon; global	!	!	!
!LO:TX:a:t=P:problem=w źródle ta adnotacja zapisana przed pierwszym taktem, na pięciolinii	!	!	!LO:TX:a:t=P:problem=w źródle ta adnotacja zapisana przed pierwszym taktem, na pięciolinii	!	!LO:TX:a:t=P:problem=w źródle ta adnotacja zapisana przed pierwszym taktem, na pięciolinii	!	!LO:TX:a:t=P:problem=w źródle ta adnotacja zapisana przed pierwszym taktem, na pięciolinii i częściowo przed pięciolinią	!
!LO:TX:a:i:t=Gloria	!	!	!LO:TX:a:i:t=Gloria	!	!LO:TX:a:i:t=Gloria	!	!LO:TX:a:i:t=Gloria	!
4F\	Et	.	4c\	Et	4f\	Et	4a\	Et
4E\	in	.	4B-\	in	4g\	in	4b-\	in
4F\	ter-	.	4A\	ter-	4a\	ter-	4cc\	ter-
4C/	-ra	.	4B-\	-ra	4g\	-ra	4b-\	-ra
=2	=2	=2	=2	=2	=2	=2	=2	=2
!LO:TX:t=P:problem=2\right&colon; global	!	!	!	!	!	!	!	!
2F\	pax	.	2c\	pax	2f\	pax	2a\	pax
2F\	ho-	.	2c\	ho-	2a\	ho-	2cc\	ho-
=3	=3	=3	=3	=3	=3	=3	=3	=3
2.C/	-mi-	.	2.e\	-mi-	2.g\	-mi-	2.b-\	-mi-
4C/	-ni-	.	4e\	-ni-	4g\	-ni-	4b-\	-ni-
=4	=4	=4	=4	=4	=4	=4	=4	=4
2F\	-bus	.	2c\	-bus	2f\	-bus	2a\	-bus
4F\	bo-	.	4c\	bo-	4f\	bo-	4a\	bo-
!LO:SIC:l:v:s=-nae	!	!	!LO:SIC:l:v:s=-nae	!	!LO:SIC:l:v:s=-nae	!	!LO:SIC:l:v:s=-nae	!
4F\	-ne	.	4c\	-ne	4f\	-ne	4a\	-ne
=5	=5	=5	=5	=5	=5	=5	=5	=5
2D/	vo-	.	2G/	vo-	2f\	vo-	2bn\	vo-
2C/	-lun-	.	2G/	-lun-	2e\	-lun-	2cc\	-lun-
!	!	!	!	!	!LO:LB:g=original	!	!LO:LB:g=original	!
=6	=6	=6	=6	=6	=6	=6	=6	=6
1G	-ta-	.	1G	-ta-	(>2e\	-ta-	(>2cc\	-ta-
.	.	.	.	.	2d\)	.	2bn\)	.
!LO:LB:g=original	!	!	!LO:LB:g=original	!	!	!	!	!
=7	=7	=7	=7	=7	=7	=7	=7	=7
2C/	-tis	.	2G/	-tis	2e\	-tis	2cc\	-tis
!LO:TX:a:t=P:problem=w źródle "p." zapisane na pięciolinii	!	!	!	!	!	!	!	!
!	!	!LO:DY:rj	!	!	!	!	!	!
!	!	!LO:DY:b:t=p.	!	!	!	!	!	!
2A\	lau-	p	2c\	lau-	2f\	lau-	2a\	lau-
=8	=8	=8	=8	=8	=8	=8	=8	=8
2B-X\	-da-	.	2c\	-da-	2g\	-da-	2b-X\	-da-
2G\	-mus	.	2c\	-mus	2e\	-mus	2g\	-mus
=9	=9	=9	=9	=9	=9	=9	=9	=9
2A\	te,	.	2c\	te	2f\	te	2a\	te
!	!	!	!LO:SIC:v:s=4F	!	!	!	!	!
!LO:TX:a:t=P:problem=w źródle "f." zapisane na pięciolinii	!	!	!	!	!	!	!	!
!	!	!LO:DY:rj	!	!	!	!	!	!
!	!	!LO:DY:b:t=f.	!	!	!	!	!	!
4F\	be-	f	4G/	be-	2r	.	4cc\	be-
4F\	-ne-	.	4A/	-ne-	.	.	4cc\	-ne-
=10	=10	=10	=10	=10	=10	=10	=10	=10
2G\	-di-	.	2B-\	-di-	1r	.	2cc\	-di-
!	!	!	!	!	!LO:TX:b:t=1.	!	!	!
4E\	-ci-	.	4G/	-ci-	.	.	4cc\	-ci-
4E\	-mus	.	4G/	-mus	.	.	4cc\	-mus
=11	=11	=11	=11	=11	=11	=11	=11	=11
2F\	te	.	2A/	te	2r	.	2cc\	te
4F\	a-	.	4F/	a-	4c\	a-	4a\	a-
4F\	-do-	.	4F/	-do-	4c\	-do-	4a\	-do-
=12	=12	=12	=12	=12	=12	=12	=12	=12
2.F\	-ra-	.	2.F/	-ra-	(>4d\	-ra-	(>4b-X\	-ra-
.	.	.	.	.	4e\)	.	4cc\)	.
!	!	!	!	!	!	!	!LO:LB:g=original	!
.	.	.	.	.	(>4f\	-mus	(>4dd\	-mus
4c\	-mus	.	4c\	-mus	4g\)	.	4ee\)	.
=13	=13	=13	=13	=13	=13	=13	=13	=13
2c\	te	.	2c\	te	2a\	te	2ff\	te
2C/	glo-	.	2c\	glo-	2g\	glo-	2ee\	glo-
!	!	!	!	!	!LO:LB:g=original	!	!	!
=14	=14	=14	=14	=14	=14	=14	=14	=14
2F\	-ri-	.	2A\	-ri-	2a\	-ri-	2cc\	-ri-
2BB-/	-fi-	.	(>4B-\	-fi-	(>4g\	-fi-	(>4b-\	-fi-
.	.	.	4c\)	.	4f\)	.	4a\)	.
!LO:LB:g=original	!	!	!	!	!	!	!	!
=15	=15	=15	=15	=15	=15	=15	=15	=15
2C/	-ca-	.	2c\	-ca-	2f\	-ca-	2a\	-ca-
2C/	-mus	.	2c\	-mus	2e\	-mus	2g\	-mus
=16	=16	=16	=16	=16	=16	=16	=16	=16
1F	te.	.	1c	te	2.f\	te	1a	te
.	.	.	.	.	4r	.	.	.
=17	=17	=17	=17	=17	=17	=17	=17	=17
2BB-/	gra-	.	2B-\	gra-	2f\	gra-	2dd\	gra-
4D\	-ti-	.	4B-\	-ti-	4f\	-ti-	4dd\	-ti-
4BB-/	-as	.	4B-\	-as	4f\	-as	4dd\	-as
=18	=18	=18	=18	=18	=18	=18	=18	=18
(>4F\	a-	.	2A\	a-	2f\	a-	2cc\	a-
4G\)	.	.	.	.	.	.	.	.
4A\	-gi-	.	4A\	-gi-	4f\	-gi-	4cc\	-gi-
4F\	-mus	.	4A\	-mus	4f\	-mus	4cc\	-mus
!	!	!	!	!	!	!	!LO:LB:g=original	!
=19	=19	=19	=19	=19	=19	=19	=19	=19
(>4B-\	ti-	.	1B-	ti-	1f	ti-	1dd	ti-
4F\	.	.	.	.	.	.	.	.
4D\	.	.	.	.	.	.	.	.
4BB-/)	.	.	.	.	.	.	.	.
=20	=20	=20	=20	=20	=20	=20	=20	=20
2F\	-bi	.	2A\	-bi	2f\	-bi	2cc\	-bi
4F\	pro-	.	4A\	pro-	4f\	pro-	4cc\	pro-
4F\	-pter	.	4B-\	-pter	4f\	-pter	4dd\	-pter
=21	=21	=21	=21	=21	=21	=21	=21	=21
(>4F\	ma-	.	(>4c\	ma-	2f\	ma-	(>4ee-X\	ma-
4G\)	.	.	4B-\)	.	.	.	4dd\)	.
(>4A\	-gnam	.	(>4A\	-gnam	2f\	-gnam	(>4cc\	-gnam
4F\)	.	.	4c\)	.	.	.	4ee-\)	.
!LO:LB:g=original	!	!	!	!	!	!	!	!
=22	=22	=22	=22	=22	=22	=22	=22	=22
(>4B-\	glo-	.	(>4B-\	glo-	2f\	glo-	(>4dd\	glo-
4F\)	.	.	4A\)	.	.	.	4cc\)	.
4D/	-ri-	.	4B-\	-ri-	4f\	-ri-	4dd\	-ri-
!	!	!	!LO:TX:a:t=P:problem=w źródle ta adnotacja zapisana za taktem 22, za pięciolinią (na marginesie strony)	!	!	!	!	!
!	!	!	!LO:TX:b:i:t=V&colon; S&colon;	!	!	!	!	!
4C/	-am	.	4A\	-am	4f\	-am	4ee-X\	-am
!	!	!	!LO:PB:g=original	!	!	!	!	!
=23	=23	=23	=23	=23	=23	=23	=23	=23
4BB-/	tu-	.	2B-\	tu-	1f	tu-	(>2dd\	tu-
4D/	.	.	.	.	.	.	.	.
2F\	.	.	2A\	.	.	.	2cc\)	.
=24	=24	=24	=24	=24	=24	=24	=24	=24
2.BB-/	-am	.	2.B-\	-am	2f\	-am	2.dd\	-am
.	.	.	.	.	2r	.	.	.
4r	.	.	4r	.	.	.	4r	.
!	!	!	!	!	!	!	!LO:LB:g=original	!
=25	=25	=25	=25	=25	=25	=25	=25	=25
(>4G\	Do-	.	4B-\	Do-	(>4g\	Do-	2dd\	Do-
4A\)	.	.	4c\	.	4f#X\)	.	.	.
4B-\	-mi-	.	4d\	-mi-	4g\	-mi-	4dd\	-mi-
4G\	-ne	.	4B-\	-ne	4g\	-ne	4dd\	-ne
=26	=26	=26	=26	=26	=26	=26	=26	=26
(>4D\	De-	.	(>4A\	De-	(>4f#X\	De-	2dd\	De-
4E\)	.	.	4B-\)	.	4g\)	.	.	.
(>4F#X\	-us	.	(>4c\	-us	(>4a\	-us	2dd\	-us
4D\)	.	.	4A\)	.	4f#\)	.	.	.
=27	=27	=27	=27	=27	=27	=27	=27	=27
(>4G\	rex	.	(>4B-\	rex	(>4g\	rex	2dd\	rex
4A\)	.	.	4c\)	.	4f#X\	.	.	.
!LO:SIC:l:v:s=coe-	!	!	!LO:SIC:l:v:s=coe-	!	!	!	!LO:SIC:l:v:s=coe-	!
(>4B-\	ce-	.	2d\	ce-	4g\)	.	2dd\	ce-
!	!	!	!	!	!LO:SIC:l:v:s=coe-	!	!	!
4c\)	.	.	.	.	4g\	ce-	.	.
!	!	!	!	!	!LO:LB:g=original	!	!	!
=28	=28	=28	=28	=28	=28	=28	=28	=28
2d\	-le-	.	2A\	-le-	2f#X\	-le-	2dd\	-le-
2D/	-stis	.	2A\	-stis	2f#\	-stis	2dd\	-stis
!LO:LB:g=original	!	!	!	!	!	!	!	!
=29	=29	=29	=29	=29	=29	=29	=29	=29
2E-X\	De-	.	2A\	De-	2f#X\	De-	2cc\	De-
2E-\	-us	.	2A\	-us	2f#\	-us	2cc\	-us
=30	=30	=30	=30	=30	=30	=30	=30	=30
4D\	pa-	.	(<4G/	pa-	2g\	pa-	(>4b-\	pa-
4C\	.	.	4A/)	.	.	.	4cc\)	.
4BB-/	-ter	.	4B-/	-ter	4g\	-ter	4dd\	-ter
4C/	om-	.	4A/	om-	4f#X\	om-	4cc\	om-
!	!	!	!LO:LB:g=original	!	!	!	!LO:LB:g=original	!
=31	=31	=31	=31	=31	=31	=31	=31	=31
2.D\	-ni-	.	2G/	-ni-	2g\	-ni-	2b-\	-ni-
.	.	.	2d\	-po-	2f#X\	-po-	2a\	-po-
4D\	-po-	.	.	.	.	.	.	.
=32	=32	=32	=32	=32	=32	=32	=32	=32
2.GG/	-tens	.	2.d\	-tens	2g\	-tens	2.b-\	-tens
.	.	.	.	.	2r	.	.	.
4r	.	.	4r	.	.	.	4r	.
=33	=33	=33	=33	=33	=33	=33	=33	=33
!	!	!	!	!	!LO:TX:b:t=4	!	!	!
2G\	Do-	.	(<4G/	Do-	00r	.	(>4b-\	Do-
.	.	.	4F#X/)	.	.	.	4a\)	.
4G\	-mi-	.	4G/	-mi-	.	.	4b-\	-mi-
4D\	-ne	.	4A/	-ne	.	.	4cc\	-ne
=34	=34	=34	=34	=34	=34	=34	=34	=34
4GG/	fi-	.	2.B-\	fi-	.	.	2.dd\	fi-
4BB-/	.	.	.	.	.	.	.	.
2D/	-li	.	.	.	.	.	.	.
.	.	.	4A\	-li	.	.	4cc\	-li
=35	=35	=35	=35	=35	=35	=35	=35	=35
2G\	u-	.	(>4G\	u-	.	.	(>4b-\	u-
.	.	.	4B-\)	.	.	.	4dd\)	.
(>4F#X\	-ni-	.	(>4A\	-ni-	.	.	(>4cc\	-ni-
4G\)	.	.	4G\)	.	.	.	4b-\)	.
!LO:LB:g=original	!	!	!	!	!	!	!	!
=36	=36	=36	=36	=36	=36	=36	=36	=36
4D\	-ge-	.	4F#X/	-ge-	.	.	4a\	-ge-
4D\	-ni-	.	4F#/	-ni-	.	.	4a\	-ni-
2D\	-te	.	2F#/	-te	.	.	2a\	-te
!	!	!	!	!	!	!	!LO:LB:g=original	!
=37	=37	=37	=37	=37	=37	=37	=37	=37
2C/	Je-	.	2F#X/	Je-	2e-X\	Je-	2a\	Je-
2BB-/	-su	.	2G/	-su	2d\	-su	2b-\	-su
=38	=38	=38	=38	=38	=38	=38	=38	=38
2AA/	Je-	.	2c\	Je-	2f#X\	Je-	2ee-X\	Je-
2GG/	-su	.	2B-X\	-su	2g\	-su	2dd\	-su
!	!	!	!LO:LB:g=original	!	!LO:LB:g=original	!	!	!
=39	=39	=39	=39	=39	=39	=39	=39	=39
1D	Chri-	.	1A	Chri-	(>2g\	Chri-	1dd	Chri-
.	.	.	.	.	2f#X\)	.	.	.
=40	=40	=40	=40	=40	=40	=40	=40	=40
1G	-ste	.	1B-	-ste	1g	-ste	1dd	-ste,
=41	=41	=41	=41	=41	=41	=41	=41	=41
!	!	!	!	!	!LO:TX:b:t=2	!	!	!
2B-\	Do-	.	2d\	Do-	0r	.	2ff\	Do-
4B-\	-mi-	.	4d\	-mi-	.	.	4ff\	-mi-
4F\	-ne	.	4c\	-ne	.	.	4ee-X\	-ne
=42	=42	=42	=42	=42	=42	=42	=42	=42
4D/	De-	.	2B-\	De-	.	.	2dd\	De-
4C/	.	.	.	.	.	.	.	.
2BB-/	-us	.	2B-\	-us	.	.	2dd\	-us
=43	=43	=43	=43	=43	=43	=43	=43	=43
2AA/	a-	.	2c\	a-	2fn\	A-	2ee-X\	A-
2BB-/	-gnus	.	2B-\	-gnus	2f\	-gnus	2dd\	-gnus
=44	=44	=44	=44	=44	=44	=44	=44	=44
2F\	De-	.	2A\	De-	2f\	De-	2cc\	De-
2F\	-i	.	2A\	-i	2f\	-i	2cc\	-i
!LO:LB:g=original	!	!	!	!	!	!	!LO:LB:g=original	!
=45	=45	=45	=45	=45	=45	=45	=45	=45
2.F\	fi-	.	2.A\	fi-	2.f\	fi-	2.cc\	fi-
4F\	-li-	.	4A\	-li-	4f\	-li-	4cc\	-li-
=46	=46	=46	=46	=46	=46	=46	=46	=46
1B-	-us	.	1B-	-us	1f	-us	1dd	-us
=47	=47	=47	=47	=47	=47	=47	=47	=47
2.B-\	fi-	.	2.c\	fi-	2.g\	fi-	2.een\	fi-
4B-\	-li-	.	4c\	-li-	4g\	-li-	4ee\	-li-
=48	=48	=48	=48	=48	=48	=48	=48	=48
(>2A\	-us	.	2c\	-us	(>2f\	-us	(>2cc\	-us
2B-\)	.	.	(>4B-\	pa-	4b-\	pa-	4dd\	.
.	.	.	4d\)	.	4g\)	.	4b-\)	.
!	!	!	!LO:LB:g=original	!	!LO:LB:g=original	!	!	!
=49	=49	=49	=49	=49	=49	=49	=49	=49
2c\	pa-	.	1c	.	(>2f\	.	(>2a\	pa-
2C/	.	.	.	.	2e\)	.	2g\)	.
=50	=50	=50	=50	=50	=50	=50	=50	=50
2F\	-tris	.	2c\	-tris	2f\	-tris	2a\	-tris
2F\	qui	.	2c\	qui	2a\	qui	2cc\	qui
=51	=51	=51	=51	=51	=51	=51	=51	=51
2E\	tol-	.	2c\	tol-	2g\	tol-	2cc\	tol-
4E\	-lis	.	4c\	-lis	4g\	-lis	4cc\	-lis
!LO:SIC:l:v:s=pec-	!	!	!	!	!	!	!	!
4F\	pe-	.	4c\	pec-	4a\	pec-	4cc\	pec-
!	!	!	!	!	!	!	!LO:LB:g=original	!
=52	=52	=52	=52	=52	=52	=52	=52	=52
(>4G\	-ca-	.	2c\	-ca-	(>4b-X\	-ca-	2cc\	-ca-
4F\)	.	.	.	.	4a\)	.	.	.
(>4G\	-ta	.	2c\	-ta	(>4b-\	-ta	2cc\	-ta
4E\)	.	.	.	.	4g\)	.	.	.
=53	=53	=53	=53	=53	=53	=53	=53	=53
(>2F\	mun-	.	1c	mun-	(>2a\	mun-	1cc	mun-
4G\	.	.	.	.	4b-\	.	.	.
4F\)	.	.	.	.	4a\)	.	.	.
!LO:LB:g=original	!	!	!	!	!	!	!	!
=54	=54	=54	=54	=54	=54	=54	=54	=54
1C	-di	.	1e	-di	1g	-di	1ee	-di
=55	=55	=55	=55	=55	=55	=55	=55	=55
4.C/	sus-	.	4.c\	sus-	4.g\	sus-	4.ee\	sus-
8D/	-ci-	.	8c\	-ci-	8f\	-ci-	8cc\	-ci-
2E\	-pe	.	2G/	-pe	2e\	-pe	2cc\	-pe
!	!	!	!	!	!LO:LB:g=original	!	!	!
=56	=56	=56	=56	=56	=56	=56	=56	=56
4.F\	sus-	.	4.F/	sus-	4.a\	sus-	4.cc\	sus-
8C/	-ci-	.	8G/	-ci-	8g\	-ci-	8b-\	-ci-
!	!	!	!	!	!	!	!LO:TX:a:t=P:problem=w źródle ta adnotacja zapisana za taktem 56, na pięciolinii	!
!	!	!	!	!	!	!	!LO:TX:b:i:t=V&colon; S&colon;	!
2F\	-pe	.	2A/	-pe	2f\	-pe	2a\	-pe
!	!	!	!	!	!	!	!LO:PB:g=original	!
=57	=57	=57	=57	=57	=57	=57	=57	=57
4F\	de-	.	4B-\	de-	4g\	de-	4ee\	de-
4F\	-pre-	.	4A\	-pre-	4a\	-pre-	4ff\	-pre-
!	!	!	!LO:LB:g=original	!	!	!	!	!
4E\	-ca-	.	4G/	-ca-	4b-\	-ca-	4gg\	-ca-
4F\	-ti-	.	4A/	-ti-	4a\	-ti-	4ff\	-ti-
=58	=58	=58	=58	=58	=58	=58	=58	=58
2C/	-o-	.	2B-\	-o-	2g\	-o-	2ee\	-o-
2F\	-nem	.	2A\	-nem	2f\	-nem	2cc\	-nem
=59	=59	=59	=59	=59	=59	=59	=59	=59
2c\	no-	.	1c	no-	(>2f\	no-	(>2a\	no-
2C/	.	.	.	.	2e\)	.	2g\)	.
=60	=60	=60	=60	=60	=60	=60	=60	=60
2F\	-stram	.	2c\	-stram	2f\	-stram	2a\	-stram
2D\	qui	.	2d\	qui	2f\	qui	2a\	qui
!LO:LB:g=original	!	!	!	!	!	!	!	!
=61	=61	=61	=61	=61	=61	=61	=61	=61
2A\	se-	.	2c#X\	se-	2e\	se-	2cc#X\	se-
4A\	-des	.	4A\	-des	4e\	-des	4cc#\	-des
4A\	ad	.	4A\	ad	4e\	ad	4cc#\	ad
!	!	!	!	!	!LO:LB:g=original	!	!	!
=62	=62	=62	=62	=62	=62	=62	=62	=62
(>4d\	dex-	.	2A\	de-	2f\	dex-	2dd\	dex-
4A\)	.	.	.	.	.	.	.	.
4F\	-te-	.	4A\	-xte-	4f\	-te-	4dd\	-te-
4D\	-ram	.	4A\	-ram	4f\	-ram	4dd\	-ram
!	!	!	!	!	!	!	!LO:LB:g=original	!
=63	=63	=63	=63	=63	=63	=63	=63	=63
2A\	pa-	.	2A\	pa-	2f\	pa-	2dd\	pa-
2AA/	-tris	.	2A\	-tris	2e\	-tris	2cc#X\	-tris
=64	=64	=64	=64	=64	=64	=64	=64	=64
2C#X/	mi-	.	2G/	mi-	2e\	mi-	2b-X\	mi-
2C#/	-se-	.	2G/	-se-	2e\	-se-	2b-\	-se-
=65	=65	=65	=65	=65	=65	=65	=65	=65
(>4D\	-re-	.	2A\	-re-	2f\	-re-	2dd\	-re-
4E\)	.	.	.	.	.	.	.	.
(>4F\	-re	.	2A\	-re	2f\	-re	2dd\	-re
4G\)	.	.	.	.	.	.	.	.
!	!	!	!LO:LB:g=original	!	!	!	!	!
=66	=66	=66	=66	=66	=66	=66	=66	=66
(>2A\	no-	.	1A	no-	(>2f\	no-	(>2dd\	no-
2AA/)	.	.	.	.	2e\)	.	2cc#X\)	.
=67	=67	=67	=67	=67	=67	=67	=67	=67
2.D\	-bis	.	2.A\	-bis	2f\	-bis	2.dd\	-bis
.	.	.	.	.	2r	.	.	.
4r	.	.	4r	.	.	.	4r	.
!LO:LB:g=original	!	!	!	!	!LO:LB:g=original	!	!	!
==68	==68	==68	==68	==68	==68	==68	==68	==68
4F\	Quo-	.	4.A\	Quo-	4.a\	Quo-	4.ccn\	Quo-
4G\	-ni-	.	.	.	.	.	.	.
.	.	.	8B-\	-ni-	8g\	-ni-	8b-X\	-ni-
4A\	-am	.	4c\	-am	4f\	-am	4a\	-am
4G\	tu	.	4B-\	tu	4g\	tu	4b-\	tu
!	!	!	!	!	!	!	!LO:LB:g=original	!
=69	=69	=69	=69	=69	=69	=69	=69	=69
(>4F\	so-	.	(>4A\	so-	(>4a\	so-	(>4cc\	so-
4G\)	.	.	4B-\)	.	4g\)	.	4b-\)	.
4A\	-lus	.	4c\	-lus	4f\	-lus	4a\	-lus
4F\	tu	.	4A\	tu	4a\	tu	4cc\	tu
=70	=70	=70	=70	=70	=70	=70	=70	=70
2F\	so-	.	2B-\	so-	(>4b-\	so-	(>4dd\	so-
.	.	.	.	.	4a\)	.	4cc\)	.
(>4E\	-lus	.	2c\	-lus	(>4g\	-lus-	(>4b-\	-lus
4F\)	.	.	.	.	4f\)	.	4a\)	.
=71	=71	=71	=71	=71	=71	=71	=71	=71
2c\	san-	.	2c\	san-	2e\	-san-	2g\	san-
!	!	!	!	!	!LO:TX:a:t=P:problem=w źródle ta adnotacja zapisana za taktem 71, na pięciolinii	!	!	!
!	!	!	!	!	!LO:TX:b:i:i:t=V&colon; S&colon;	!	!	!
2C/	-ctus	.	2c\	-ctus	2e\	-ctus	2g\	-ctus
!	!	!	!	!	!LO:PB:g=original	!	!	!
=72	=72	=72	=72	=72	=72	=72	=72	=72
1C	tu	.	2r	.	2r	.	2r	.
.	.	.	2c\	tu	(>4e\	tu	(>4g\	tu
.	.	.	.	.	4f\)	.	4a\)	.
=73	=73	=73	=73	=73	=73	=73	=73	=73
2C/	so-	.	2e\	so-	2g\	so-	2b-\	so-
2C/	-lus	.	2c\	-lus	(>4f\	-lus	(>4a\	-lus
.	.	.	.	.	4e\)	.	4g\)	.
=74	=74	=74	=74	=74	=74	=74	=74	=74
4F\	Do-	.	4c\	Do-	4f\	Do-	4a\	Do-
4C/	-mi-	.	4B-\	-mi-	4g\	-mi-	4b-\	-mi-
!LO:TX:a:t=P:problem=w źródle ta anotacja zapisana za takem 74, na pięciolinii i częściowo za pięciolinią (na marginesie strony)	!	!	!	!	!	!	!	!
!LO:TX:b:i:t=V&colon; S&colon;	!	!	!	!	!	!	!	!
2F\	-nus	.	2A\	-nus	2a\	-nus	2cc\	-nus
!LO:PB:g=original	!	!	!LO:LB:g=original	!	!	!	!LO:LB:g=original	!
=75	=75	=75	=75	=75	=75	=75	=75	=75
1F	tu	.	2r	.	2r	.	2r	.
.	.	.	2c\	tu	2a\	tu	2cc\	tu
=76	=76	=76	=76	=76	=76	=76	=76	=76
2F\	so-	.	2c\	so-	2a\	so-	2cc\	so-
4E\	-lus	.	4d\	-lus	4b-\	-lus	4dd\	-lus
4F\	al-	.	4c\	al-	4a\	al-	4cc\	al-
=77	=77	=77	=77	=77	=77	=77	=77	=77
!LO:SIC:l:v:s=-tis-	!	!	!	!	!	!	!	!
2.C/	-ti-	.	(>4B-\	-tis-	(>4g\	-tis-	(>4b-\	-tis-
.	.	.	4A\)	.	4f\)	.	4a\)	.
.	.	.	(>4G\	-si-	(>4e\	-si-	(>4g\	-si-
4C/	-si-	.	4A\)	.	4f\)	.	4a\)	.
!	!	!	!	!	!LO:LB:g=original	!	!	!
=78	=78	=78	=78	=78	=78	=78	=78	=78
2.C/	-mus	.	2.G/	-mus	2e\	-mus	1g	-mus
.	.	.	.	.	2r	.	.	.
4r	.	.	4r	.	.	.	.	.
=79	=79	=79	=79	=79	=79	=79	=79	=79
(>4c\	Je-	.	1e	Je-	1g	Je-	1b-	Je-
4G\)	.	.	.	.	.	.	.	.
(>4E\	-su	.	.	.	.	.	.	.
4C\)	.	.	.	.	.	.	.	.
=80	=80	=80	=80	=80	=80	=80	=80	=80
(>4F\	Je-	.	1c	-su	1f	-su	1a	-su
4c\)	.	.	.	.	.	.	.	.
(>4A\	-su	.	.	.	.	.	.	.
4F\)	.	.	.	.	.	.	.	.
=81	=81	=81	=81	=81	=81	=81	=81	=81
4F\	Chri-	.	1c	Chri-	(>2f\	Chri-	(>2a\	Chri-
4A\	.	.	.	.	.	.	.	.
4c\	.	.	.	.	2e\)	.	2g\)	.
4C/	.	.	.	.	.	.	.	.
=82	=82	=82	=82	=82	=82	=82	=82	=82
2F\	-ste	.	2c\	-ste	2f\	-ste	2a\	-ste,
2F\	cum	.	2c\	cum	(>4f\	cum	(>4a\	cum
.	.	.	.	.	4g\)	.	4b-\)	.
!LO:LB:g=original	!	!	!	!	!	!	!LO:LB:g=original	!
=83	=83	=83	=83	=83	=83	=83	=83	=83
2F\	san-	.	2f\	san-	2a\	san-	2cc\	san-
2F\	-cto	.	2d\	-cto	2b-\	-cto	2dd\	-cto
=84	=84	=84	=84	=84	=84	=84	=84	=84
2.F\	spi-	.	2.f\	spi-	2.a\	spi-	2.cc\	spi-
4E\	-ri-	.	4c\	-ri-	4g\	-ri-	4b-\	-ri-
!	!	!	!LO:LB:g=original	!	!	!	!	!
=85	=85	=85	=85	=85	=85	=85	=85	=85
2F\	-tu	.	2c\	-tu	2f\	-tu	2a\	-tu
2F\	in	.	2c\	in	2f\	in	2a\	in
!	!	!	!	!	!LO:LB:g=original	!	!	!
=86	=86	=86	=86	=86	=86	=86	=86	=86
4C/	glo-	.	4c\	glo-	4e\	glo-	4g\	glo-
8C/	-ri-	.	8c\	-ri-	8f\	-ri-	8a\	-ri-
8C/	-a	.	8c\	-a	8f\	-a	8a\	-a
4E\	De-	.	4c\	De-	4g\	De-	4b-\	De-
4C/	-i	.	4c\	-i	4e\	-i	4g\	-i
=87	=87	=87	=87	=87	=87	=87	=87	=87
(>4F\	pa-	.	(>4c\	pa-	(>4f\	pa-	(>4a\	pa-
4E\)	.	.	4B-\)	.	4g\)	.	4b-\)	.
(>4F\	-tris	.	(>4A\	-tris	(>4a\	-tris	(>4cc\	-tris
4B-\)	.	.	4B-\)	.	4g\)	.	4b-\)	.
=88	=88	=88	=88	=88	=88	=88	=88	=88
2c\	A-	.	1c	a-	(>2f\	A-	(>2a\	A-
2C/	.	.	.	.	2e\)	.	2g\)	.
=89	=89	=89	=89	=89	=89	=89	=89	=89
1F	-men.	.	1c	-men.	1f	-men.	1a	-men.
==	==	==	==	==	==	==	==	==
*-	*-	*-	*-	*-	*-	*-	*-	*-
!!!system-decoration: [(s1,s2,s3,s4)]
!!!RDF**kern: > = above
!!!RDF**kern: < = below
!!!EED: Antoni Szymański
!!!EEV: 2021-02-03
!!!ENC: Andrzej Borzym
!!!END: 2021-01-28
